X: 27989
T: Moving Bog, The
R: polka
M: 2/4
K: Gmajor
de|d2G2 B2c2|d6 e2|fed2 c2B2|A2B2 c2de|
d2G2 B2c2|d6 e2|fed2 c2A2|A2 G2 G2:|
B2|d2g2 g2a2|b4 a2g2|f2d2 d2e2|f2g2 a2f2|
d2g2 g2a2|b2c'b a2g2|f2d2 c2A2|A2G2 G2B2|
d2g2 g2a2|b4 a2g2|f2d2 d2e2|f2g2 a4|
gab2 a2f2|g2f2 d2e2|f2d2 c2A2|A2G2 G2||

